symbols/web/assignment/materialsymbolsrounded/assignment_wght100fill1_48px.svg

<svg xmlns="http://www.w3.org/2000/svg" height="48" width="48"><path d="M15.85 32.1h10.2q.25 0 .4-.15.15-.15.15-.4t-.15-.4q-.15-.15-.4-.15h-10.2q-.25 0-.4.15-.15.15-.15.4t.15.4q.15.15.4.15Zm0-7.55h16.3q.25 0 .4-.15.15-.15.15-.4t-.15-.4q-.15-.15-.4-.15h-16.3q-.25 0-.4.15-.15.15-.15.4t.15.4q.15.15.4.15Zm0-7.55h16.3q.25 0 .4-.15.15-.15.15-.4t-.15-.4q-.15-.15-.4-.15h-16.3q-.25 0-.4.15-.15.15-.15.4t.15.4q.15.15.4.15ZM11.3 39.4q-1.05 0-1.875-.825T8.6 36.7V11.3q0-1.1.825-1.9.825-.8 1.875-.8h10.25q-.65-1.4.15-2.7.8-1.3 2.35-1.3 1.5 0 2.3 1.3.8 1.3.1 2.7H36.7q1.1 0 1.9.8.8.8.8 1.9v25.4q0 1.05-.8 1.875t-1.9.825ZM24 8.9q.65 0 1.125-.45T25.6 7.3q0-.65-.475-1.1-.475-.45-1.125-.45t-1.1.45q-.45.45-.45 1.1 0 .7.45 1.15.45.45 1.1.45Z"/></svg>

<svg xmlns="http://www.w3.org/2000/svg" height="48" width="48"><path d="M15.85 32.1H26.05Q26.3 32.1 26.45 31.95Q26.6 31.8 26.6 31.55Q26.6 31.3 26.45 31.15Q26.3 31 26.05 31H15.85Q15.6 31 15.45 31.15Q15.3 31.3 15.3 31.55Q15.3 31.8 15.45 31.95Q15.6 32.1 15.85 32.1ZM15.85 24.55H32.15Q32.4 24.55 32.55 24.4Q32.7 24.25 32.7 24Q32.7 23.75 32.55 23.6Q32.4 23.45 32.15 23.45H15.85Q15.6 23.45 15.45 23.6Q15.3 23.75 15.3 24Q15.3 24.25 15.45 24.4Q15.6 24.55 15.85 24.55ZM15.85 17H32.15Q32.4 17 32.55 16.85Q32.7 16.7 32.7 16.45Q32.7 16.2 32.55 16.05Q32.4 15.9 32.15 15.9H15.85Q15.6 15.9 15.45 16.05Q15.3 16.2 15.3 16.45Q15.3 16.7 15.45 16.85Q15.6 17 15.85 17ZM11.3 39.4Q10.25 39.4 9.425 38.575Q8.6 37.75 8.6 36.7V11.3Q8.6 10.2 9.425 9.4Q10.25 8.6 11.3 8.6H21.3Q20.75 7.2 21.6 5.9Q22.45 4.6 24.05 4.6Q25.6 4.6 26.45 5.9Q27.3 7.2 26.7 8.6H36.7Q37.8 8.6 38.6 9.4Q39.4 10.2 39.4 11.3V36.7Q39.4 37.75 38.6 38.575Q37.8 39.4 36.7 39.4ZM24 8.9Q24.65 8.9 25.125 8.45Q25.6 8 25.6 7.35Q25.6 6.7 25.125 6.225Q24.65 5.75 24 5.75Q23.35 5.75 22.9 6.225Q22.45 6.7 22.45 7.35Q22.45 8 22.9 8.45Q23.35 8.9 24 8.9Z"/></svg>
